svg/logo/Android_2_fill.svg

<?xml version="1.0" encoding="UTF-8"?>
<svg width="24px" height="24px" viewBox="0 0 24 24" version="1.1" xmlns="http://www.w3.org/2000/svg" xmlns:xlink="http://www.w3.org/1999/xlink">
    <title>Android_2_fill</title>
    <g id="页面-1" stroke="none" stroke-width="1" fill="none" fill-rule="evenodd">
        <g id="Logo" transform="translate(0.000000, -144.000000)">
            <g id="Android_2_fill" transform="translate(0.000000, 144.000000)">
                 <path d="M24,0 L24,24 L0,24 L0,0 L24,0 Z M12.5934901,23.257841 L12.5819402,23.2595131 L12.5108777,23.2950439 L12.4918791,23.2987469 L12.4918791,23.2987469 L12.4767152,23.2950439 L12.4056548,23.2595131 C12.3958229,23.2563662 12.3870493,23.2590235 12.3821421,23.2649074 L12.3780323,23.275831 L12.360941,23.7031097 L12.3658947,23.7234994 L12.3769048,23.7357139 L12.4804777,23.8096931 L12.4953491,23.8136134 L12.4953491,23.8136134 L12.5071152,23.8096931 L12.6106902,23.7357139 L12.6232938,23.7196733 L12.6232938,23.7196733 L12.6266527,23.7031097 L12.609561,23.275831 C12.6075724,23.2657013 12.6010112,23.2592993 12.5934901,23.257841 L12.5934901,23.257841 Z M12.8583906,23.1452862 L12.8445485,23.1473072 L12.6598443,23.2396597 L12.6498822,23.2499052 L12.6498822,23.2499052 L12.6471943,23.2611114 L12.6650943,23.6906389 L12.6699349,23.7034178 L12.6699349,23.7034178 L12.678386,23.7104931 L12.8793402,23.8032389 C12.8914285,23.8068999 12.9022333,23.8029875 12.9078286,23.7952264 L12.9118235,23.7811639 L12.8776777,23.1665331 C12.8752882,23.1545897 12.8674102,23.1470016 12.8583906,23.1452862 L12.8583906,23.1452862 Z M12.1430473,23.1473072 C12.1332178,23.1423925 12.1221763,23.1452606 12.1156365,23.1525954 L12.1099173,23.1665331 L12.0757714,23.7811639 C12.0751323,23.7926639 12.0828099,23.8018602 12.0926481,23.8045676 L12.108256,23.8032389 L12.3092106,23.7104931 L12.3186497,23.7024347 L12.3186497,23.7024347 L12.3225043,23.6906389 L12.340401,23.2611114 L12.337245,23.2485176 L12.337245,23.2485176 L12.3277531,23.2396597 L12.1430473,23.1473072 Z" id="MingCute" fill-rule="nonzero"></path>
                <path d="M18.4472,4.10555 C18.9412,4.35254 19.1414,4.95321 18.8944,5.44719 L17.7199,7.79631 C20.3074,9.6038 22,12.6042 22,16 L22,17 C22,18.1046 21.1046,19 20,19 L4,19 C2.89543,19 2,18.1046 2,17 L2,16 C2,12.6042 3.69259,9.60379 6.28014,7.79631 L5.10558,5.44719 C4.85859,4.95321 5.05881,4.35254 5.55279,4.10555 C6.04677,3.85856 6.64744,4.05878 6.89443,4.55276 L8.028,6.8199 C9.24553,6.29239 10.5886,6 12,6 C13.4114,6 14.7545,6.29239 15.972,6.81991 L17.1056,4.55276 C17.3526,4.05878 17.9532,3.85856 18.4472,4.10555 Z M7.5,12 C6.67157,12 6,12.6716 6,13.5 C6,14.3284 6.67157,15 7.5,15 C8.32843,15 9,14.3284 9,13.5 C9,12.6716 8.32843,12 7.5,12 Z M16.5,12 C15.6716,12 15,12.6716 15,13.5 C15,14.3284 15.6716,15 16.5,15 C17.3284,15 18,14.3284 18,13.5 C18,12.6716 17.3284,12 16.5,12 Z" id="形状结合" fill="#09244B"></path>
            </g>
        </g>
    </g>
</svg>

<svg xmlns="http://www.w3.org/2000/svg" width="24" height="24"><g fill="none" fill-rule="evenodd"><path d="M24 0v24H0V0h24ZM12.593 23.258l-.011.002-.071.035-.02.004-.014-.004-.071-.035c-.01-.004-.019-.001-.024.005l-.004.01-.017.428.005.02.01.013.104.074.015.004.012-.004.104-.074.012-.016.004-.017-.017-.427c-.002-.01-.009-.017-.017-.018Zm.265-.113-.013.002-.185.093-.01.01-.003.011.018.43.005.012.008.007.201.093c.012.004.023 0 .029-.008l.004-.014-.034-.614c-.003-.012-.01-.02-.02-.022Zm-.715.002a.023.023 0 0 0-.027.006l-.006.014-.034.614c0 .012.007.02.017.024l.015-.002.201-.093.01-.008.004-.011.017-.43-.003-.012-.01-.01-.184-.092Z"/><path fill="#09244B" d="M18.447 4.106a1 1 0 0 1 .447 1.341l-1.174 2.35A9.988 9.988 0 0 1 22 16v1a2 2 0 0 1-2 2H4a2 2 0 0 1-2-2v-1a9.988 9.988 0 0 1 4.28-8.204L5.106 5.447a1 1 0 1 1 1.788-.894L8.028 6.82A9.967 9.967 0 0 1 12 6c1.411 0 2.755.292 3.972.82l1.134-2.267a1 1 0 0 1 1.341-.447ZM7.5 12a1.5 1.5 0 1 0 0 3 1.5 1.5 0 0 0 0-3Zm9 0a1.5 1.5 0 1 0 0 3 1.5 1.5 0 0 0 0-3Z"/></g></svg>
